X:=2
T:Anthropology
C:Gillespie - Parker
L:1/8
M:C
I:linebreak $
K:Bb
"Bb" BdcB"G7" e^cdf |"Cm" z2 z e"F7" z f e2 |"Dm" z ded"Gm" cABd |"Cm" cGBA"F7" z2 z B |$
"Bb7" z2 GB _dB z =e |"Eb7" z _e2 _G"Ab7" z Bcd ||1"Dm" f2 z =B"G7" z _a2 _g |
"Cm" ge B2"F7" df z F :|2$"Dm" (3efe df"G7" z ded |"Cm" cGBc"F7" z2 z ^f ||"D7" z2 g^g a^f=ga |
^fd z2 z2 z =e |$"G7" f=ed^c ed=BA | z2 z a2 a2 a |"C7" z g=ed d3 G | (3c/d/c/GBc z2 z e |$
"F7" z2 dc =BdcG |"Cm" c2 BA"F7" z2 z"_D.C. al 3rd end." F ||3"Dm" (3efe df"G7" z ded |
"C7" cBAB"Bb6" z4 |]

